Mohamed-Abd-elmawgoud/Robotics_ROS2_Pkgs_25/home_to_pick.csv
Step,q1,q2,q3,q4,q5
0,-180.0,5.06,10.38,0.0,0.0
1,-179.97,5.06,10.38,-0.01,0.0
2,-179.89,5.07,10.37,-0.03,0.0
3,-179.76,5.09,10.35,-0.06,0.0
4,-179.57,5.12,10.32,-0.11,0.0
5,-179.34,5.15,10.29,-0.17,0.0
6,-179.05,5.19,10.25,-0.24,0.0
7,-178.71,5.24,10.21,-0.32,0.0
8,-178.32,5.3,10.16,-0.42,0.0
9,-177.88,5.36,10.1,-0.53,0.0
10,-177.39,5.43,10.04,-0.65,0.0
11,-176.85,5.51,9.97,-0.79,0.0
12,-176.27,5.59,9.89,-0.93,0.0
13,-175.63,5.68,9.81,-1.09,0.0
14,-174.95,5.78,9.72,-1.26,0.0
15,-174.23,5.88,9.62,-1.44,0.0
16,-173.46,5.99,9.52,-1.64,0.0
17,-172.64,6.11,9.41,-1.84,0.0
18,-171.78,6.24,9.3,-2.06,0.0
19,-170.87,6.37,9.18,-2.28,0.0
20,-169.92,6.5,9.06,-2.52,0.0
21,-168.93,6.64,8.93,-2.77,0.0
22,-167.89,6.79,8.79,-3.03,0.0
23,-166.81,6.95,8.65,-3.3,0.0
24,-165.69,7.11,8.5,-3.58,0.0
25,-164.53,7.27,8.35,-3.87,0.0
26,-163.33,7.45,8.19,-4.17,0.0
27,-162.09,7.63,8.03,-4.48,0.0
28,-160.81,7.81,7.86,-4.8,0.0
29,-159.49,8.0,7.69,-5.13,0.0
30,-158.13,8.19,7.51,-5.47,0.0
31,-156.73,8.39,7.33,-5.82,0.0
32,-155.3,8.6,7.14,-6.17,0.0
33,-153.83,8.81,6.95,-6.54,0.0
34,-152.33,9.03,6.75,-6.92,0.0
35,-150.78,9.25,6.55,-7.3,0.0
36,-149.21,9.47,6.34,-7.7,0.0
37,-147.6,9.7,6.13,-8.1,0.0
38,-145.95,9.94,5.92,-8.51,0.0
39,-144.27,10.18,5.7,-8.93,0.0
40,-142.56,10.43,5.47,-9.36,0.0
41,-140.82,10.68,5.24,-9.8,0.0
42,-139.04,10.93,5.01,-10.24,0.0
43,-137.23,11.19,4.77,-10.69,0.0
44,-135.39,11.45,4.53,-11.15,0.0
45,-133.53,11.72,4.29,-11.62,0.0
46,-131.63,11.99,4.04,-12.09,0.0
47,-129.7,12.27,3.79,-12.57,0.0
48,-127.75,12.55,3.53,-13.06,0.0
49,-125.76,12.84,3.27,-13.56,0.0
50,-123.75,13.12,3.01,-14.06,0.0
51,-121.71,13.42,2.74,-14.57,0.0
52,-119.65,13.71,2.47,-15.09,0.0
53,-117.56,14.01,2.19,-15.61,0.0
54,-115.44,14.32,1.92,-16.14,0.0
55,-113.3,14.62,1.63,-16.68,0.0
56,-111.13,14.93,1.35,-17.22,0.0
57,-108.94,15.25,1.06,-17.76,0.0
58,-106.73,15.57,0.77,-18.32,0.0
59,-104.5,15.89,0.48,-18.88,0.0
60,-102.24,16.21,0.19,-19.44,0.0
61,-99.96,16.54,-0.11,-20.01,0.0
62,-97.66,16.87,-0.42,-20.58,0.0
63,-95.34,17.2,-0.72,-21.16,0.0
64,-93.0,17.53,-1.03,-21.75,0.0
65,-90.64,17.87,-1.34,-22.34,0.0
66,-88.26,18.21,-1.65,-22.93,0.0
67,-85.87,18.56,-1.96,-23.53,0.0
68,-83.45,18.9,-2.28,-24.14,0.0
69,-81.02,19.25,-2.6,-24.75,0.0
70,-78.57,19.6,-2.92,-25.36,0.0
71,-76.11,19.96,-3.24,-25.97,0.0
72,-73.62,20.31,-3.57,-26.59,0.0
73,-71.13,20.67,-3.89,-27.22,0.0
74,-68.62,21.03,-4.22,-27.85,0.0
75,-66.09,21.39,-4.55,-28.48,0.0
76,-63.56,21.76,-4.89,-29.11,0.0
77,-61.0,22.12,-5.22,-29.75,0.0
78,-58.44,22.49,-5.56,-30.39,0.0
79,-55.87,22.86,-5.89,-31.03,0.0
80,-53.28,23.23,-6.23,-31.68,0.0
81,-50.68,23.61,-6.57,-32.33,0.0
82,-48.08,23.98,-6.92,-32.98,0.0
83,-45.46,24.35,-7.26,-33.64,0.0
84,-42.83,24.73,-7.6,-34.29,0.0
85,-40.2,25.11,-7.95,-34.95,0.0
86,-37.55,25.49,-8.3,-35.61,0.0
87,-34.9,25.87,-8.64,-36.27,0.0
88,-32.24,26.25,-8.99,-36.94,0.0
89,-29.58,26.63,-9.34,-37.6,0.0
90,-26.91,27.02,-9.69,-38.27,0.0
91,-24.23,27.4,-10.04,-38.94,0.0
92,-21.55,27.78,-10.39,-39.61,0.0
93,-18.87,28.17,-10.74,-40.28,0.0
94,-16.18,28.55,-11.1,-40.95,0.0
95,-13.49,28.94,-11.45,-41.63,0.0
96,-10.79,29.33,-11.8,-42.3,0.0
97,-8.1,29.71,-12.16,-42.98,0.0
98,-5.4,30.1,-12.51,-43.65,0.0
99,-2.7,30.49,-12.86,-44.33,0.0
100,-0.0,30.87,-13.22,-45.0,0.0
101,2.7,31.26,-13.57,-45.67,0.0
102,5.4,31.65,-13.93,-46.35,0.0
103,8.1,32.04,-14.28,-47.02,0.0
104,10.79,32.42,-14.63,-47.7,0.0
105,13.49,32.81,-14.99,-48.37,0.0
106,16.18,33.2,-15.34,-49.05,0.0
107,18.87,33.58,-15.69,-49.72,0.0
108,21.55,33.97,-16.04,-50.39,0.0
109,24.23,34.35,-16.4,-51.06,0.0
110,26.91,34.73,-16.75,-51.73,0.0
111,29.58,35.12,-17.1,-52.4,0.0
112,32.24,35.5,-17.45,-53.06,0.0
113,34.9,35.88,-17.79,-53.73,0.0
114,37.55,36.26,-18.14,-54.39,0.0
115,40.2,36.64,-18.49,-55.05,0.0
116,42.83,37.02,-18.83,-55.71,0.0
117,45.46,37.4,-19.18,-56.36,0.0
118,48.08,37.77,-19.52,-57.02,0.0
119,50.68,38.14,-19.86,-57.67,0.0
120,53.28,38.52,-20.2,-58.32,0.0
121,55.87,38.89,-20.54,-58.97,0.0
122,58.44,39.26,-20.88,-59.61,0.0
123,61.0,39.63,-21.22,-60.25,0.0
124,63.56,39.99,-21.55,-60.89,0.0
125,66.09,40.36,-21.88,-61.52,0.0
126,68.62,40.72,-22.21,-62.15,0.0
127,71.13,41.08,-22.54,-62.78,0.0
128,73.62,41.44,-22.87,-63.41,0.0
129,76.1,41.79,-23.2,-64.03,0.0
130,78.57,42.14,-23.52,-64.64,0.0
131,81.02,42.5,-23.84,-65.25,0.0
132,83.45,42.85,-24.16,-65.86,0.0
133,85.87,43.19,-24.48,-66.47,0.0
134,88.26,43.54,-24.79,-67.07,0.0
135,90.64,43.88,-25.1,-67.66,0.0
136,93.0,44.21,-25.41,-68.25,0.0
137,95.34,44.55,-25.72,-68.84,0.0
138,97.66,44.88,-26.02,-69.42,0.0
139,99.96,45.21,-26.32,-69.99,0.0
140,102.24,45.54,-26.62,-70.56,0.0
141,104.5,45.86,-26.92,-71.12,0.0
142,106.73,46.18,-27.21,-71.68,0.0
143,108.94,46.5,-27.5,-72.24,0.0
144,111.13,46.82,-27.79,-72.78,0.0
145,113.3,47.13,-28.07,-73.32,0.0
146,115.44,47.43,-28.35,-73.86,0.0
147,117.56,47.74,-28.63,-74.39,0.0
148,119.65,48.04,-28.9,-74.91,0.0
149,121.71,48.33,-29.18,-75.43,0.0
150,123.75,48.63,-29.44,-75.94,0.0
151,125.76,48.91,-29.71,-76.44,0.0
152,127.75,49.2,-29.97,-76.94,0.0
153,129.7,49.48,-30.22,-77.43,0.0
154,131.63,49.76,-30.48,-77.91,0.0
155,133.53,50.03,-30.72,-78.38,0.0
156,135.39,50.3,-30.97,-78.85,0.0
157,137.23,50.56,-31.21,-79.31,0.0
158,139.04,50.82,-31.45,-79.76,0.0
159,140.82,51.07,-31.68,-80.2,0.0
160,142.56,51.32,-31.91,-80.64,0.0
161,144.27,51.57,-32.13,-81.07,0.0
162,145.95,51.81,-32.35,-81.49,0.0
163,147.6,52.05,-32.57,-81.9,0.0
164,149.21,52.28,-32.78,-82.3,0.0
165,150.78,52.5,-32.99,-82.7,0.0
166,152.33,52.72,-33.19,-83.08,0.0
167,153.83,52.94,-33.39,-83.46,0.0
168,155.3,53.15,-33.58,-83.83,0.0
169,156.73,53.36,-33.77,-84.18,0.0
170,158.13,53.56,-33.95,-84.53,0.0
171,159.49,53.75,-34.13,-84.87,0.0
172,160.81,53.94,-34.3,-85.2,0.0
173,162.09,54.12,-34.47,-85.52,0.0
174,163.33,54.3,-34.63,-85.83,0.0
175,164.53,54.48,-34.79,-86.13,0.0
176,165.69,54.64,-34.94,-86.42,0.0
177,166.81,54.8,-35.09,-86.7,0.0
178,167.89,54.96,-35.23,-86.97,0.0
179,168.93,55.11,-35.37,-87.23,0.0
180,169.92,55.25,-35.5,-87.48,0.0
181,170.87,55.38,-35.62,-87.72,0.0
182,171.78,55.51,-35.74,-87.94,0.0
183,172.64,55.64,-35.85,-88.16,0.0
184,173.46,55.76,-35.96,-88.36,0.0
185,174.23,55.87,-36.06,-88.56,0.0
186,174.95,55.97,-36.16,-88.74,0.0
187,175.63,56.07,-36.24,-88.91,0.0
188,176.27,56.16,-36.33,-89.07,0.0
189,176.85,56.24,-36.4,-89.21,0.0
190,177.39,56.32,-36.47,-89.35,0.0
191,177.88,56.39,-36.54,-89.47,0.0
192,178.32,56.45,-36.6,-89.58,0.0
193,178.71,56.51,-36.65,-89.68,0.0
194,179.05,56.56,-36.69,-89.76,0.0
195,179.34,56.6,-36.73,-89.83,0.0
196,179.57,56.63,-36.76,-89.89,0.0
197,179.76,56.66,-36.79,-89.94,0.0
198,179.89,56.68,-36.8,-89.97,0.0
199,179.97,56.69,-36.81,-89.99,0.0
200,180.0,56.69,-36.82,-90.0,0.0
