Mohamed-Abd-elmawgoud/Robotics_ROS2_Pkgs_25/Pickup_pos.csv
step,q1,q2,q3,q4,q5
0,0.003139,0.005114,0.000533,-0.006637,0.0
1,0.024570,0.007566,-0.008183,-0.017578,0.0
2,0.071157,0.012895,-0.027128,-0.041362,0.0
3,0.143793,0.021204,-0.056668,-0.078445,0.0
4,0.242899,0.032542,-0.096972,-0.129042,0.0
5,0.367884,0.046839,-0.147801,-0.192850,0.0
6,0.519321,0.064163,-0.209387,-0.270164,0.0
7,0.696518,0.084433,-0.281449,-0.360628,0.0
8,0.898983,0.107594,-0.363787,-0.463993,0.0
9,1.128930,0.133899,-0.457302,-0.581388,0.0
10,1.384895,0.163180,-0.561398,-0.712066,0.0
11,1.665707,0.195303,-0.675598,-0.855429,0.0
12,1.973971,0.230567,-0.800962,-1.012807,0.0
13,2.307773,0.268752,-0.936712,-1.183224,0.0
14,2.667116,0.309859,-1.082849,-1.366679,0.0
15,3.052888,0.353990,-1.239734,-1.563628,0.0
16,3.464853,0.401116,-1.407271,-1.773949,0.0
17,3.903011,0.451239,-1.585461,-1.997642,0.0
18,4.367420,0.504365,-1.774326,-2.234737,0.0
19,4.858046,0.560490,-1.973853,-2.485217,0.0
20,5.373751,0.619484,-2.183579,-2.748500,0.0
21,5.914642,0.681359,-2.403548,-3.024642,0.0
22,6.484916,0.746596,-2.635466,-3.315784,0.0
23,7.079127,0.814570,-2.877119,-3.619147,0.0
24,7.700146,0.885612,-3.129674,-3.936197,0.0
25,8.346978,0.959606,-3.392726,-4.266424,0.0
26,9.019636,1.036554,-3.666282,-4.609837,0.0
27,9.715416,1.116148,-3.949240,-4.965054,0.0
28,10.442811,1.199358,-4.245056,-5.336412,0.0
29,11.191628,1.285019,-4.549584,-5.718706,0.0
30,11.970281,1.374093,-4.866245,-6.116232,0.0
31,12.773909,1.466023,-5.193063,-6.526509,0.0
32,13.601538,1.560700,-5.529642,-6.949039,0.0
33,14.455751,1.658417,-5.877032,-7.385141,0.0
34,15.340404,1.759617,-6.236801,-7.836784,0.0
35,16.245444,1.863149,-6.604862,-8.298835,0.0
36,17.180349,1.970097,-6.985067,-8.776132,0.0
37,18.140912,2.079981,-7.375707,-9.266530,0.0
38,19.125909,2.192659,-7.776284,-9.769401,0.0
39,20.136306,2.308243,-8.187191,-10.285240,0.0
40,21.168730,2.426347,-8.607055,-10.812324,0.0
41,22.240109,2.548907,-9.042762,-11.359296,0.0
42,23.328797,2.673447,-9.485508,-11.915105,0.0
43,24.446449,2.801301,-9.940033,-12.485701,0.0
44,25.587566,2.931839,-10.404101,-13.068276,0.0
45,26.755995,3.065501,-10.879275,-13.664795,0.0
46,27.950872,3.202189,-11.365206,-14.274817,0.0
47,29.169392,3.341581,-11.860752,-14.896909,0.0
48,30.414412,3.484005,-12.367074,-15.532530,0.0
49,31.689905,3.629915,-12.885790,-16.183709,0.0
50,32.989531,3.778585,-13.414320,-16.847208,0.0
51,34.314209,3.930121,-13.953038,-17.523497,0.0
52,35.663920,4.084521,-14.501936,-18.212566,0.0
53,37.038563,4.241773,-15.060973,-18.914363,0.0
54,38.442897,4.402421,-15.632086,-19.631319,0.0
55,39.867851,4.565429,-16.211584,-20.358803,0.0
56,41.328345,4.732502,-16.805535,-21.104430,0.0
57,42.809957,4.901990,-17.408075,-21.860838,0.0
58,44.317090,5.074398,-18.020993,-22.630276,0.0
59,45.848691,5.249606,-18.643862,-23.412206,0.0
60,47.403892,5.427512,-19.276328,-24.206184,0.0
61,48.991827,5.609164,-19.922107,-25.016873,0.0
62,50.606543,5.793879,-20.578777,-25.841236,0.0
63,52.238584,5.980576,-21.242493,-26.674443,0.0
64,53.904556,6.171154,-21.920008,-27.524973,0.0
65,55.593430,6.364353,-22.606836,-28.387195,0.0
66,57.312191,6.560970,-23.305819,-29.264676,0.0
67,59.041027,6.758740,-24.008900,-30.147300,0.0
68,60.770918,6.956630,-24.712409,-31.030463,0.0
69,62.494702,7.153822,-25.413435,-31.910508,0.0
70,64.222246,7.351444,-26.115989,-32.792472,0.0
71,65.955072,7.549670,-26.820692,-33.677134,0.0
72,67.683751,7.747422,-27.523709,-34.559678,0.0
73,69.405700,7.944404,-28.223988,-35.438785,0.0
74,71.139098,8.142696,-28.928924,-36.323739,0.0
75,72.870265,8.340732,-29.632952,-37.207553,0.0
76,74.593274,8.537835,-30.333663,-38.087202,0.0
77,76.321338,8.735517,-31.036429,-38.969432,0.0
78,78.056097,8.933964,-31.741918,-39.855080,0.0
79,79.778903,9.131044,-32.442546,-40.734626,0.0
80,81.511361,9.329228,-33.147099,-41.619099,0.0
81,83.238809,9.526839,-33.849615,-42.501015,0.0
82,84.970865,9.724977,-34.554004,-43.385283,0.0
83,86.691217,9.921777,-35.253634,-44.263576,0.0
84,88.425011,10.120114,-35.958731,-45.148731,0.0
85,90.156862,10.318228,-36.663037,-46.032894,0.0
86,91.881684,10.515539,-37.364485,-46.913469,0.0
87,93.614079,10.713716,-38.069012,-47.797910,0.0
88,95.342679,10.911459,-38.771997,-48.680414,0.0
89,97.065623,11.108555,-39.472681,-49.560030,0.0
90,98.793876,11.306258,-40.175524,-50.442356,0.0
91,100.525510,11.504347,-40.879742,-51.326409,0.0
92,102.254823,11.702172,-41.583016,-52.209277,0.0
93,103.980713,11.899605,-42.284898,-53.090397,0.0
94,105.710965,12.097536,-42.988555,-53.973744,0.0
95,107.440890,12.295431,-43.692077,-54.856923,0.0
96,109.170555,12.493295,-44.395495,-55.739971,0.0
97,110.899354,12.691061,-45.098560,-56.622576,0.0
98,112.620136,12.887909,-45.798365,-57.501089,0.0
99,114.357149,13.086615,-46.504771,-58.387887,0.0
100,116.085334,13.284310,-47.207586,-59.270179,0.0
101,117.809000,13.481488,-47.908564,-60.150164,0.0
102,119.511917,13.676293,-48.601103,-61.019555,0.0
103,121.185685,13.867763,-49.281789,-61.874066,0.0
104,122.832164,14.056112,-49.951376,-62.714644,0.0
105,124.454534,14.241703,-50.611159,-63.542914,0.0
106,126.051696,14.424410,-51.260690,-64.358315,0.0
107,127.626867,14.604601,-51.901278,-65.162488,0.0
108,129.172923,14.781462,-52.530026,-65.951797,0.0
109,130.691959,14.955231,-53.147785,-66.727312,0.0
110,132.184190,15.125935,-53.754643,-67.489142,0.0
111,133.646458,15.293211,-54.349315,-68.235674,0.0
112,135.091750,15.458544,-54.937085,-68.973541,0.0
113,136.506504,15.620385,-55.512434,-69.695816,0.0
114,137.889335,15.778574,-56.074802,-70.401794,0.0
115,139.257396,15.935073,-56.631163,-71.100232,0.0
116,140.590708,16.087596,-57.173392,-71.780929,0.0
117,141.901988,16.237600,-57.706661,-72.450378,0.0
118,143.188883,16.384814,-58.230013,-73.107377,0.0
119,144.445555,16.528571,-58.741075,-73.748947,0.0
120,145.674721,16.669181,-59.240950,-74.376474,0.0
121,146.884889,16.807618,-59.733099,-74.994302,0.0
122,148.064942,16.942610,-60.213001,-75.596755,0.0
123,149.218294,17.074547,-60.682044,-76.185577,0.0
124,150.346367,17.203593,-61.140807,-76.761493,0.0
125,151.446039,17.329389,-61.588020,-77.322910,0.0
126,152.521254,17.452388,-62.025287,-77.871840,0.0
127,153.572226,17.572614,-62.452695,-78.408394,0.0
128,154.595814,17.689707,-62.868966,-78.930968,0.0
129,155.590098,17.803448,-63.273319,-79.438580,0.0
130,156.563788,17.914833,-63.669298,-79.935679,0.0
131,157.510586,18.023142,-64.054340,-80.419048,0.0
132,158.426127,18.127875,-64.426671,-80.886460,0.0
133,159.320148,18.230146,-64.790250,-81.342885,0.0
134,160.185640,18.329154,-65.142227,-81.784746,0.0
135,161.030590,18.425812,-65.485850,-82.216119,0.0
136,161.843134,18.518763,-65.816294,-82.630948,0.0
137,162.633197,18.609142,-66.137596,-83.034299,0.0
138,163.395802,18.696380,-66.447731,-83.423633,0.0
139,164.131816,18.780576,-66.747051,-83.799391,0.0
140,164.843474,18.861986,-67.036467,-84.162714,0.0
141,165.527759,18.940265,-67.314751,-84.512063,0.0
142,166.186659,19.015639,-67.582712,-84.848451,0.0
143,166.818081,19.087871,-67.839498,-85.170812,0.0
144,167.422158,19.156974,-68.085162,-85.479212,0.0
145,168.004560,19.223598,-68.322013,-85.776546,0.0
146,168.558828,19.287003,-68.547421,-86.059517,0.0
147,169.086552,19.347372,-68.762035,-86.328936,0.0
148,169.589352,19.404890,-68.966513,-86.585631,0.0
149,170.063983,19.459185,-69.159536,-86.827945,0.0
150,170.514328,19.510702,-69.342681,-87.057860,0.0
151,170.938510,19.559226,-69.515187,-87.274418,0.0
152,171.335917,19.604687,-69.676803,-87.477306,0.0
153,171.706958,19.647133,-69.827698,-87.666734,0.0
154,172.052864,19.686702,-69.968370,-87.843330,0.0
155,172.372068,19.723218,-70.098184,-88.006293,0.0
156,172.663890,19.756601,-70.216861,-88.155278,0.0
157,172.932382,19.787315,-70.326051,-88.292351,0.0
158,173.173904,19.814943,-70.424273,-88.415655,0.0
159,173.388518,19.839494,-70.511552,-88.525222,0.0
160,173.576941,19.861049,-70.588180,-88.621418,0.0
161,173.740138,19.879718,-70.654548,-88.704736,0.0
162,173.877294,19.895408,-70.710327,-88.774758,0.0
163,173.987746,19.908043,-70.755245,-88.831147,0.0
164,174.072760,19.917768,-70.789819,-88.874549,0.0
165,174.131399,19.924476,-70.813666,-88.904486,0.0
166,174.163616,19.928161,-70.826768,-88.920934,0.0
167,174.171872,19.929106,-70.830125,-88.925149,0.0
168,174.172285,19.929153,-70.830293,-88.925360,0.0
169,174.172302,19.929155,-70.830300,-88.925369,0.0
170,174.172303,19.929155,-70.830300,-88.925369,0.0
171,174.172303,19.929155,-70.830300,-88.925369,0.0
172,174.172303,19.929155,-70.830300,-88.925369,0.0
173,174.172303,19.929155,-70.830300,-88.925369,0.0
174,174.172303,19.929155,-70.830300,-88.925369,0.0
175,174.172303,19.929155,-70.830300,-88.925369,0.0
176,174.172303,19.929155,-70.830300,-88.925369,0.0
177,174.172303,19.929155,-70.830300,-88.925369,0.0
178,174.172303,19.929155,-70.830300,-88.925369,0.0
179,174.172303,19.929155,-70.830300,-88.925369,0.0
180,174.172303,19.929155,-70.830300,-88.925369,0.0
181,174.172303,19.929155,-70.830300,-88.925369,0.0
182,174.172303,19.929155,-70.830300,-88.925369,0.0
183,174.172303,19.929155,-70.830300,-88.925369,0.0
184,174.172303,19.929155,-70.830300,-88.925369,0.0
185,174.172303,19.929155,-70.830300,-88.925369,0.0
186,174.172303,19.929155,-70.830300,-88.925369,0.0
187,174.172303,19.929155,-70.830300,-88.925369,0.0
188,174.172303,19.929155,-70.830300,-88.925369,0.0
189,174.172303,19.929155,-70.830300,-88.925369,0.0
190,174.172303,19.929155,-70.830300,-88.925369,0.0
191,174.172303,19.929155,-70.830300,-88.925369,0.0
192,174.172303,19.929155,-70.830300,-88.925369,0.0
193,174.172303,19.929155,-70.830300,-88.925369,0.0
194,174.172303,19.929155,-70.830300,-88.925369,0.0
195,174.172303,19.929155,-70.830300,-88.925369,0.0
196,174.172303,19.929155,-70.830300,-88.925369,0.0
197,174.172303,19.929155,-70.830300,-88.925369,0.0
198,174.172303,19.929155,-70.830300,-88.925369,0.0
199,174.172303,19.929155,-70.830300,-88.925369,0.0
