Mohamed-Abd-elmawgoud/Robotics_ROS2_Pkgs_25/place_to_home.csv
Step,q1,q2,q3,q4,q5
0,-180.0,-56.7,36.8,90.0,0.0
1,-180.0,-56.7,36.8,89.99,0.0
2,-180.0,-56.68,36.79,89.97,0.0
3,-180.0,-56.66,36.78,89.94,0.0
4,-180.0,-56.63,36.77,89.89,0.0
5,-180.0,-56.59,36.75,89.83,0.0
6,-180.0,-56.54,36.73,89.76,0.0
7,-180.0,-56.48,36.7,89.68,0.0
8,-180.0,-56.41,36.68,89.58,0.0
9,-180.0,-56.34,36.64,89.47,0.0
10,-180.0,-56.25,36.61,89.35,0.0
11,-180.0,-56.16,36.57,89.21,0.0
12,-180.0,-56.06,36.52,89.07,0.0
13,-180.0,-55.95,36.48,88.91,0.0
14,-180.0,-55.84,36.43,88.74,0.0
15,-180.0,-55.71,36.38,88.56,0.0
16,-180.0,-55.58,36.32,88.36,0.0
17,-180.0,-55.44,36.26,88.16,0.0
18,-180.0,-55.29,36.2,87.94,0.0
19,-180.0,-55.14,36.13,87.72,0.0
20,-180.0,-54.97,36.06,87.48,0.0
21,-180.0,-54.8,35.99,87.23,0.0
22,-180.0,-54.62,35.91,86.97,0.0
23,-180.0,-54.44,35.83,86.7,0.0
24,-180.0,-54.25,35.75,86.42,0.0
25,-180.0,-54.05,35.66,86.13,0.0
26,-180.0,-53.84,35.58,85.83,0.0
27,-180.0,-53.63,35.48,85.52,0.0
28,-180.0,-53.41,35.39,85.2,0.0
29,-180.0,-53.18,35.29,84.87,0.0
30,-180.0,-52.95,35.19,84.53,0.0
31,-180.0,-52.71,35.09,84.18,0.0
32,-180.0,-52.47,34.99,83.83,0.0
33,-180.0,-52.21,34.88,83.46,0.0
34,-180.0,-51.95,34.77,83.08,0.0
35,-180.0,-51.69,34.65,82.7,0.0
36,-180.0,-51.42,34.54,82.3,0.0
37,-180.0,-51.14,34.42,81.9,0.0
38,-180.0,-50.86,34.3,81.49,0.0
39,-180.0,-50.57,34.18,81.07,0.0
40,-180.0,-50.28,34.05,80.64,0.0
41,-180.0,-49.98,33.92,80.2,0.0
42,-180.0,-49.68,33.79,79.76,0.0
43,-180.0,-49.37,33.66,79.31,0.0
44,-180.0,-49.05,33.53,78.85,0.0
45,-180.0,-48.73,33.39,78.38,0.0
46,-180.0,-48.4,33.25,77.91,0.0
47,-180.0,-48.07,33.11,77.43,0.0
48,-180.0,-47.74,32.96,76.94,0.0
49,-180.0,-47.4,32.82,76.44,0.0
50,-180.0,-47.05,32.67,75.94,0.0
51,-180.0,-46.7,32.52,75.43,0.0
52,-180.0,-46.35,32.37,74.91,0.0
53,-180.0,-45.99,32.22,74.39,0.0
54,-180.0,-45.63,32.06,73.86,0.0
55,-180.0,-45.26,31.9,73.32,0.0
56,-180.0,-44.89,31.74,72.78,0.0
57,-180.0,-44.51,31.58,72.24,0.0
58,-180.0,-44.13,31.42,71.68,0.0
59,-180.0,-43.75,31.26,71.12,0.0
60,-180.0,-43.36,31.09,70.56,0.0
61,-180.0,-42.97,30.92,69.99,0.0
62,-180.0,-42.58,30.76,69.42,0.0
63,-180.0,-42.18,30.59,68.84,0.0
64,-180.0,-41.78,30.41,68.25,0.0
65,-180.0,-41.37,30.24,67.66,0.0
66,-180.0,-40.96,30.07,67.07,0.0
67,-180.0,-40.55,29.89,66.47,0.0
68,-180.0,-40.14,29.71,65.86,0.0
69,-180.0,-39.72,29.53,65.25,0.0
70,-180.0,-39.3,29.36,64.64,0.0
71,-180.0,-38.88,29.17,64.03,0.0
72,-180.0,-38.45,28.99,63.41,0.0
73,-180.0,-38.03,28.81,62.78,0.0
74,-180.0,-37.59,28.62,62.15,0.0
75,-180.0,-37.16,28.44,61.52,0.0
76,-180.0,-36.73,28.25,60.89,0.0
77,-180.0,-36.29,28.07,60.25,0.0
78,-180.0,-35.85,27.88,59.61,0.0
79,-180.0,-35.41,27.69,58.97,0.0
80,-180.0,-34.96,27.5,58.32,0.0
81,-180.0,-34.52,27.31,57.67,0.0
82,-180.0,-34.07,27.12,57.02,0.0
83,-180.0,-33.62,26.93,56.36,0.0
84,-180.0,-33.17,26.73,55.71,0.0
85,-180.0,-32.72,26.54,55.05,0.0
86,-180.0,-32.27,26.35,54.39,0.0
87,-180.0,-31.81,26.15,53.73,0.0
88,-180.0,-31.35,25.96,53.06,0.0
89,-180.0,-30.9,25.76,52.4,0.0
90,-180.0,-30.44,25.56,51.73,0.0
91,-180.0,-29.98,25.37,51.06,0.0
92,-180.0,-29.52,25.17,50.39,0.0
93,-180.0,-29.06,24.97,49.72,0.0
94,-180.0,-28.6,24.78,49.05,0.0
95,-180.0,-28.14,24.58,48.37,0.0
96,-180.0,-27.67,24.38,47.7,0.0
97,-180.0,-27.21,24.18,47.02,0.0
98,-180.0,-26.75,23.99,46.35,0.0
99,-180.0,-26.29,23.79,45.67,0.0
100,-180.0,-25.82,23.59,45.0,0.0
101,-180.0,-25.36,23.39,44.33,0.0
102,-180.0,-24.9,23.19,43.65,0.0
103,-180.0,-24.43,22.99,42.98,0.0
104,-180.0,-23.97,22.8,42.3,0.0
105,-180.0,-23.51,22.6,41.63,0.0
106,-180.0,-23.05,22.4,40.95,0.0
107,-180.0,-22.59,22.2,40.28,0.0
108,-180.0,-22.13,22.01,39.61,0.0
109,-180.0,-21.67,21.81,38.94,0.0
110,-180.0,-21.21,21.61,38.27,0.0
111,-180.0,-20.75,21.42,37.6,0.0
112,-180.0,-20.29,21.22,36.94,0.0
113,-180.0,-19.84,21.03,36.27,0.0
114,-180.0,-19.38,20.83,35.61,0.0
115,-180.0,-18.93,20.64,34.95,0.0
116,-180.0,-18.48,20.45,34.29,0.0
117,-180.0,-18.02,20.25,33.64,0.0
118,-180.0,-17.58,20.06,32.98,0.0
119,-180.0,-17.13,19.87,32.33,0.0
120,-180.0,-16.68,19.68,31.68,0.0
121,-180.0,-16.24,19.49,31.03,0.0
122,-180.0,-15.8,19.3,30.39,0.0
123,-180.0,-15.36,19.11,29.75,0.0
124,-180.0,-14.92,18.93,29.11,0.0
125,-180.0,-14.48,18.74,28.48,0.0
126,-180.0,-14.05,18.55,27.85,0.0
127,-180.0,-13.62,18.37,27.22,0.0
128,-180.0,-13.19,18.19,26.59,0.0
129,-180.0,-12.77,18.0,25.97,0.0
130,-180.0,-12.34,17.82,25.36,0.0
131,-180.0,-11.92,17.64,24.75,0.0
132,-180.0,-11.51,17.46,24.14,0.0
133,-180.0,-11.09,17.29,23.53,0.0
134,-180.0,-10.68,17.11,22.93,0.0
135,-180.0,-10.27,16.94,22.34,0.0
136,-180.0,-9.87,16.76,21.75,0.0
137,-180.0,-9.47,16.59,21.16,0.0
138,-180.0,-9.07,16.42,20.58,0.0
139,-180.0,-8.67,16.25,20.01,0.0
140,-180.0,-8.28,16.09,19.44,0.0
141,-180.0,-7.9,15.92,18.88,0.0
142,-180.0,-7.51,15.76,18.32,0.0
143,-180.0,-7.13,15.59,17.76,0.0
144,-180.0,-6.76,15.43,17.22,0.0
145,-180.0,-6.39,15.27,16.68,0.0
146,-180.0,-6.02,15.12,16.14,0.0
147,-180.0,-5.66,14.96,15.61,0.0
148,-180.0,-5.3,14.81,15.09,0.0
149,-180.0,-4.94,14.66,14.57,0.0
150,-180.0,-4.59,14.51,14.06,0.0
151,-180.0,-4.25,14.36,13.56,0.0
152,-180.0,-3.91,14.21,13.06,0.0
153,-180.0,-3.57,14.07,12.57,0.0
154,-180.0,-3.24,13.93,12.09,0.0
155,-180.0,-2.92,13.79,11.62,0.0
156,-180.0,-2.6,13.65,11.15,0.0
157,-180.0,-2.28,13.52,10.69,0.0
158,-180.0,-1.97,13.39,10.24,0.0
159,-180.0,-1.67,13.26,9.8,0.0
160,-180.0,-1.37,13.13,9.36,0.0
161,-180.0,-1.07,13.0,8.93,0.0
162,-180.0,-0.79,12.88,8.51,0.0
163,-180.0,-0.5,12.76,8.1,0.0
164,-180.0,-0.23,12.64,7.7,0.0
165,-180.0,0.04,12.52,7.3,0.0
166,-180.0,0.31,12.41,6.92,0.0
167,-180.0,0.57,12.3,6.54,0.0
168,-180.0,0.82,12.19,6.17,0.0
169,-180.0,1.06,12.09,5.82,0.0
170,-180.0,1.3,11.98,5.47,0.0
171,-180.0,1.54,11.88,5.13,0.0
172,-180.0,1.76,11.79,4.8,0.0
173,-180.0,1.98,11.69,4.48,0.0
174,-180.0,2.2,11.6,4.17,0.0
175,-180.0,2.4,11.51,3.87,0.0
176,-180.0,2.6,11.43,3.58,0.0
177,-180.0,2.79,11.35,3.3,0.0
178,-180.0,2.98,11.27,3.03,0.0
179,-180.0,3.16,11.19,2.77,0.0
180,-180.0,3.33,11.12,2.52,0.0
181,-180.0,3.49,11.05,2.28,0.0
182,-180.0,3.65,10.98,2.06,0.0
183,-180.0,3.79,10.92,1.84,0.0
184,-180.0,3.93,10.86,1.64,0.0
185,-180.0,4.07,10.8,1.44,0.0
186,-180.0,4.19,10.75,1.26,0.0
187,-180.0,4.31,10.7,1.09,0.0
188,-180.0,4.42,10.65,0.93,0.0
189,-180.0,4.52,10.61,0.79,0.0
190,-180.0,4.61,10.57,0.65,0.0
191,-180.0,4.69,10.54,0.53,0.0
192,-180.0,4.77,10.5,0.42,0.0
193,-180.0,4.83,10.47,0.32,0.0
194,-180.0,4.89,10.45,0.24,0.0
195,-180.0,4.94,10.43,0.17,0.0
196,-180.0,4.98,10.41,0.11,0.0
197,-180.0,5.01,10.4,0.06,0.0
198,-180.0,5.04,10.39,0.03,0.0
199,-180.0,5.05,10.38,0.01,0.0
200,-180.0,5.06,10.38,0.0,0.0
