Mohamed-Abd-elmawgoud/Robotics_ROS2_Pkgs_25/Place_pos.csv
step,q1,q2,q3,q4,q5
0,174.172129,20.094294,-68.993409,-89.951492,0.001776
1,174.156152,20.093502,-68.988261,-89.951492,0.001776
2,174.122835,20.091852,-68.977527,-89.951492,0.001775
3,174.071658,20.089318,-68.961038,-89.951493,0.001775
4,174.002212,20.085879,-68.938662,-89.951493,0.001774
5,173.915041,20.081562,-68.910576,-89.951494,0.001773
6,173.809436,20.076333,-68.876550,-89.951495,0.001772
7,173.686024,20.070221,-68.836787,-89.951496,0.001770
8,173.544917,20.063234,-68.791323,-89.951497,0.001769
9,173.385208,20.055325,-68.739864,-89.951499,0.001767
10,173.208451,20.046572,-68.682914,-89.951500,0.001765
11,173.012479,20.036867,-68.619772,-89.951502,0.001763
12,172.799468,20.026318,-68.551140,-89.951504,0.001761
13,172.568169,20.014864,-68.476616,-89.951506,0.001758
14,172.319531,20.002552,-68.396505,-89.951508,0.001756
15,172.052754,19.989341,-68.310550,-89.951510,0.001753
16,171.765831,19.975132,-68.218104,-89.951513,0.001750
17,171.462580,19.960115,-68.120397,-89.951515,0.001746
18,171.142055,19.944242,-68.017124,-89.951518,0.001743
19,170.802189,19.927412,-67.907620,-89.951521,0.001739
20,170.445454,19.909746,-67.792680,-89.951524,0.001735
21,170.069263,19.891117,-67.671472,-89.951527,0.001731
22,169.676948,19.871689,-67.545069,-89.951531,0.001727
23,169.266744,19.851375,-67.412902,-89.951534,0.001723
24,168.835738,19.830032,-67.274032,-89.951538,0.001718
25,168.389489,19.807933,-67.130252,-89.951542,0.001713
26,167.924501,19.784907,-66.980433,-89.951546,0.001708
27,167.441927,19.761009,-66.824949,-89.951550,0.001703
28,166.939048,19.736106,-66.662922,-89.951554,0.001697
29,166.420101,19.710408,-66.495718,-89.951559,0.001692
30,165.882465,19.683784,-66.322492,-89.951563,0.001686
31,165.329311,19.656391,-66.144267,-89.951568,0.001680
32,164.753592,19.627881,-65.958771,-89.951573,0.001674
33,164.164433,19.598705,-65.768945,-89.951578,0.001667
34,163.553611,19.568457,-65.572139,-89.951583,0.001661
35,162.926326,19.537394,-65.370029,-89.951589,0.001654
36,162.281643,19.505468,-65.162313,-89.951594,0.001647
37,161.617667,19.472588,-64.948381,-89.951600,0.001640
38,160.936852,19.438873,-64.729023,-89.951606,0.001632
39,160.237736,19.404253,-64.503769,-89.951612,0.001625
40,159.522134,19.368816,-64.273204,-89.951618,0.001617
41,158.785797,19.332352,-64.035957,-89.951624,0.001609
42,158.034564,19.295150,-63.793911,-89.951631,0.001601
43,157.262035,19.256894,-63.545003,-89.951638,0.001593
44,156.472021,19.217772,-63.290462,-89.951644,0.001584
45,155.664886,19.177802,-63.030404,-89.951651,0.001575
46,154.840870,19.136996,-62.764908,-89.951658,0.001566
47,153.998634,19.095288,-62.493541,-89.951666,0.001557
48,153.135819,19.052561,-62.215543,-89.951673,0.001548
49,152.258173,19.009099,-61.932767,-89.951681,0.001539
50,151.359773,18.964610,-61.643303,-89.951688,0.001529
51,150.444663,18.919293,-61.348457,-89.951696,0.001519
52,149.515224,18.873266,-61.048993,-89.951704,0.001509
53,148.566039,18.826262,-60.743167,-89.951712,0.001499
54,147.592016,18.778028,-60.429338,-89.951721,0.001488
55,146.604661,18.729133,-60.111214,-89.951729,0.001477
56,145.601235,18.679443,-59.787911,-89.951738,0.001466
57,144.577457,18.628745,-59.458052,-89.951747,0.001455
58,143.537241,18.577233,-59.122896,-89.951756,0.001444
59,142.477453,18.524751,-58.781434,-89.951765,0.001433
60,141.403477,18.471567,-58.435400,-89.951774,0.001421
61,140.304923,18.417166,-58.081448,-89.951784,0.001409
62,139.192403,18.362073,-57.722996,-89.951793,0.001397
63,138.061537,18.306072,-57.358633,-89.951803,0.001385
64,136.914778,18.249284,-56.989149,-89.951813,0.001372
65,135.745851,18.191398,-56.612522,-89.951823,0.001360
66,134.560779,18.132712,-56.230694,-89.951833,0.001347
67,133.357478,18.073124,-55.842992,-89.951843,0.001334
68,132.136380,18.012654,-55.449556,-89.951854,0.001321
69,130.903184,17.951585,-55.052222,-89.951865,0.001307
70,129.641086,17.889085,-54.645576,-89.951875,0.001294
71,128.366742,17.825979,-54.234985,-89.951886,0.001280
72,127.075807,17.762051,-53.819047,-89.951897,0.001266
73,125.762542,17.697017,-53.395915,-89.951909,0.001252
74,124.433661,17.631210,-52.967752,-89.951920,0.001237
75,123.090066,17.564674,-52.534848,-89.951932,0.001223
76,121.725537,17.497102,-52.095199,-89.951944,0.001208
77,120.344376,17.428706,-51.650191,-89.951955,0.001193
78,118.942291,17.359274,-51.198441,-89.951968,0.001178
79,117.522217,17.288951,-50.740896,-89.951980,0.001163
80,116.086816,17.217868,-50.278412,-89.951992,0.001147
81,114.659551,17.147189,-49.818549,-89.952004,0.001132
82,113.242356,17.077009,-49.361931,-89.952017,0.001116
83,111.850558,17.008086,-48.913496,-89.952029,0.001101
84,110.469996,16.939720,-48.468681,-89.952040,0.001086
85,109.112918,16.872516,-48.031432,-89.952052,0.001071
86,107.772585,16.806142,-47.599579,-89.952064,0.001057
87,106.454215,16.740855,-47.174802,-89.952075,0.001043
88,105.140511,16.675800,-46.751529,-89.952086,0.001028
89,103.850422,16.611914,-46.335864,-89.952097,0.001015
90,102.586248,16.549311,-45.928549,-89.952108,0.001001
91,101.328082,16.487006,-45.523170,-89.952119,0.000987
92,100.094661,16.425926,-45.125764,-89.952130,0.000974
93,98.878063,16.365679,-44.733778,-89.952140,0.000961
94,97.679677,16.306334,-44.347660,-89.952151,0.000948
95,96.499769,16.247904,-43.967495,-89.952161,0.000935
96,95.340968,16.190520,-43.594131,-89.952171,0.000922
97,94.195486,16.133795,-43.225059,-89.952181,0.000910
98,93.071518,16.078135,-42.862918,-89.952190,0.000898
99,91.960070,16.023095,-42.504811,-89.952200,0.000886
100,90.870209,15.969125,-42.153660,-89.952209,0.000874
101,89.800951,15.916174,-41.809147,-89.952218,0.000862
102,88.744488,15.863857,-41.468756,-89.952228,0.000851
103,87.709952,15.812626,-41.135430,-89.952236,0.000840
104,86.693713,15.762302,-40.807999,-89.952245,0.000829
105,85.694188,15.712804,-40.485954,-89.952254,0.000818
106,84.709359,15.664035,-40.168644,-89.952262,0.000807
107,83.743594,15.616210,-39.857476,-89.952271,0.000797
108,82.797785,15.569372,-39.552737,-89.952279,0.000787
109,81.870099,15.523433,-39.253838,-89.952287,0.000777
110,80.959643,15.478346,-38.960491,-89.952295,0.000767
111,80.068709,15.434227,-38.673433,-89.952302,0.000757
112,79.194915,15.390956,-38.391898,-89.952310,0.000748
113,78.337230,15.348483,-38.115553,-89.952317,0.000738
114,77.498614,15.306954,-37.845353,-89.952324,0.000729
115,76.678921,15.266362,-37.581249,-89.952331,0.000720
116,75.877558,15.226678,-37.323051,-89.952338,0.000712
117,75.092579,15.187805,-37.070132,-89.952345,0.000703
118,74.326282,15.149858,-36.823232,-89.952352,0.000695
119,73.577929,15.112799,-36.582114,-89.952358,0.000687
120,72.849460,15.076724,-36.347403,-89.952364,0.000679
121,72.135893,15.041388,-36.117492,-89.952371,0.000671
122,71.441226,15.006988,-35.893672,-89.952377,0.000664
123,70.767314,14.973615,-35.676538,-89.952382,0.000656
124,70.110474,14.941088,-35.464906,-89.952388,0.000649
125,69.467157,14.909230,-35.257630,-89.952394,0.000642
126,68.845228,14.878432,-35.057245,-89.952399,0.000636
127,68.243187,14.848619,-34.863269,-89.952404,0.000629
128,67.654538,14.819468,-34.673607,-89.952409,0.000623
129,67.087596,14.791393,-34.490939,-89.952414,0.000617
130,66.535399,14.764048,-34.313022,-89.952419,0.000611
131,66.004765,14.737770,-34.142053,-89.952423,0.000605
132,65.489337,14.712246,-33.975982,-89.952428,0.000599
133,64.992788,14.687657,-33.815995,-89.952432,0.000594
134,64.514105,14.663952,-33.661764,-89.952436,0.000589
135,64.054960,14.641215,-33.513828,-89.952440,0.000584
136,63.612408,14.619299,-33.371239,-89.952444,0.000579
137,63.188388,14.598301,-33.234620,-89.952448,0.000574
138,62.782197,14.578187,-33.103746,-89.952451,0.000570
139,62.392680,14.558897,-32.978244,-89.952454,0.000566
140,62.022900,14.540586,-32.859102,-89.952458,0.000562
141,61.670107,14.523115,-32.745432,-89.952461,0.000558
142,61.335932,14.506567,-32.637762,-89.952464,0.000554
143,61.019143,14.490879,-32.535693,-89.952466,0.000551
144,60.721276,14.476128,-32.439720,-89.952469,0.000548
145,60.440976,14.462248,-32.349408,-89.952471,0.000545
146,60.177788,14.449214,-32.264610,-89.952474,0.000542
147,59.934206,14.437152,-32.186128,-89.952476,0.000539
148,59.707682,14.425934,-32.113142,-89.952478,0.000537
149,59.498854,14.415593,-32.045858,-89.952479,0.000534
150,59.308352,14.406159,-31.984479,-89.952481,0.000532
151,59.136520,14.397650,-31.929114,-89.952483,0.000530
152,58.981776,14.389987,-31.879256,-89.952484,0.000529
153,58.845018,14.383215,-31.835193,-89.952485,0.000527
154,58.726417,14.377342,-31.796980,-89.952486,0.000526
155,58.625937,14.372366,-31.764605,-89.952487,0.000525
156,58.543727,14.368295,-31.738117,-89.952488,0.000524
157,58.479096,14.365094,-31.717293,-89.952488,0.000523
158,58.432279,14.362776,-31.702209,-89.952489,0.000523
159,58.403905,14.361371,-31.693067,-89.952489,0.000523
160,58.393229,14.360842,-31.689627,-89.952489,0.000522
161,58.392113,14.360787,-31.689268,-89.952489,0.000522
162,58.392033,14.360783,-31.689242,-89.952489,0.000522
163,58.392028,14.360782,-31.689240,-89.952489,0.000522
164,58.392027,14.360782,-31.689240,-89.952489,0.000522
165,58.392027,14.360782,-31.689240,-89.952489,0.000522
166,58.392027,14.360782,-31.689240,-89.952489,0.000522
167,58.392027,14.360782,-31.689240,-89.952489,0.000522
168,58.392027,14.360782,-31.689240,-89.952489,0.000522
169,58.392027,14.360782,-31.689240,-89.952489,0.000522
170,58.392027,14.360782,-31.689240,-89.952489,0.000522
171,58.392027,14.360782,-31.689240,-89.952489,0.000522
172,58.392027,14.360782,-31.689240,-89.952489,0.000522
173,58.392027,14.360782,-31.689240,-89.952489,0.000522
174,58.392027,14.360782,-31.689240,-89.952489,0.000522
175,58.392027,14.360782,-31.689240,-89.952489,0.000522
176,58.392027,14.360782,-31.689240,-89.952489,0.000522
177,58.392027,14.360782,-31.689240,-89.952489,0.000522
178,58.392027,14.360782,-31.689240,-89.952489,0.000522
179,58.392027,14.360782,-31.689240,-89.952489,0.000522
180,58.392027,14.360782,-31.689240,-89.952489,0.000522
181,58.392027,14.360782,-31.689240,-89.952489,0.000522
182,58.392027,14.360782,-31.689240,-89.952489,0.000522
183,58.392027,14.360782,-31.689240,-89.952489,0.000522
184,58.392027,14.360782,-31.689240,-89.952489,0.000522
185,58.392027,14.360782,-31.689240,-89.952489,0.000522
186,58.392027,14.360782,-31.689240,-89.952489,0.000522
187,58.392027,14.360782,-31.689240,-89.952489,0.000522
188,58.392027,14.360782,-31.689240,-89.952489,0.000522
189,58.392027,14.360782,-31.689240,-89.952489,0.000522
190,58.392027,14.360782,-31.689240,-89.952489,0.000522
191,58.392027,14.360782,-31.689240,-89.952489,0.000522
192,58.392027,14.360782,-31.689240,-89.952489,0.000522
193,58.392027,14.360782,-31.689240,-89.952489,0.000522
194,58.392027,14.360782,-31.689240,-89.952489,0.000522
195,58.392027,14.360782,-31.689240,-89.952489,0.000522
196,58.392027,14.360782,-31.689240,-89.952489,0.000522
197,58.392027,14.360782,-31.689240,-89.952489,0.000522
198,58.392027,14.360782,-31.689240,-89.952489,0.000522
199,58.392027,14.360782,-31.689240,-89.952489,0.000522