Mohamed-Abd-elmawgoud/Robotics_ROS2_Pkgs_25/trajectory_2.csv
Step,q1,q2,q3,q4,q5
0,180.0,30.35,-75.29,-70.9,0.0
1,180.0,30.34,-75.28,-70.88,0.0
2,180.0,30.32,-75.26,-70.85,0.0
3,180.0,30.28,-75.23,-70.79,0.0
4,180.0,30.23,-75.18,-70.71,0.0
5,180.0,30.17,-75.12,-70.6,0.0
6,180.0,30.09,-75.05,-70.47,0.0
7,180.0,29.99,-74.96,-70.32,0.0
8,180.0,29.89,-74.87,-70.14,0.0
9,180.0,29.77,-74.76,-69.95,0.0
10,180.0,29.64,-74.63,-69.73,0.0
11,180.0,29.49,-74.5,-69.49,0.0
12,180.0,29.33,-74.35,-69.23,0.0
13,180.0,29.16,-74.19,-68.94,0.0
14,180.0,28.97,-74.02,-68.64,0.0
15,180.0,28.77,-73.84,-68.32,0.0
16,180.0,28.56,-73.65,-67.97,0.0
17,180.0,28.34,-73.44,-67.61,0.0
18,180.0,28.1,-73.23,-67.22,0.0
19,180.0,27.86,-73.0,-66.82,0.0
20,180.0,27.6,-72.76,-66.39,0.0
21,180.0,27.33,-72.51,-65.95,0.0
22,180.0,27.04,-72.25,-65.48,0.0
23,180.0,26.75,-71.98,-65.0,0.0
24,180.0,26.44,-71.7,-64.5,0.0
25,180.0,26.13,-71.41,-63.98,0.0
26,180.0,25.8,-71.11,-63.45,0.0
27,180.0,25.46,-70.8,-62.89,0.0
28,180.0,25.11,-70.48,-62.32,0.0
29,180.0,24.75,-70.15,-61.73,0.0
30,180.0,24.38,-69.81,-61.12,0.0
31,180.0,24.0,-69.46,-60.5,0.0
32,180.0,23.61,-69.1,-59.86,0.0
33,180.0,23.21,-68.73,-59.2,0.0
34,180.0,22.8,-68.36,-58.53,0.0
35,180.0,22.38,-67.97,-57.84,0.0
36,180.0,21.95,-67.58,-57.13,0.0
37,180.0,21.51,-67.17,-56.41,0.0
38,180.0,21.06,-66.76,-55.68,0.0
39,180.0,20.6,-66.34,-54.93,0.0
40,180.0,20.13,-65.91,-54.16,0.0
41,180.0,19.66,-65.47,-53.38,0.0
42,180.0,19.17,-65.03,-52.59,0.0
43,180.0,18.68,-64.58,-51.78,0.0
44,180.0,18.18,-64.12,-50.96,0.0
45,180.0,17.67,-63.65,-50.13,0.0
46,180.0,17.15,-63.17,-49.28,0.0
47,180.0,16.63,-62.69,-48.42,0.0
48,180.0,16.09,-62.2,-47.54,0.0
49,180.0,15.55,-61.71,-46.65,0.0
50,180.0,15.0,-61.2,-45.76,0.0
51,180.0,14.45,-60.69,-44.84,0.0
52,180.0,13.88,-60.17,-43.92,0.0
53,180.0,13.31,-59.65,-42.99,0.0
54,180.0,12.74,-59.12,-42.04,0.0
55,180.0,12.15,-58.58,-41.08,0.0
56,180.0,11.56,-58.04,-40.12,0.0
57,180.0,10.96,-57.49,-39.14,0.0
58,180.0,10.36,-56.94,-38.15,0.0
59,180.0,9.75,-56.38,-37.15,0.0
60,180.0,9.14,-55.82,-36.14,0.0
61,180.0,8.51,-55.25,-35.12,0.0
62,180.0,7.89,-54.67,-34.1,0.0
63,180.0,7.25,-54.09,-33.06,0.0
64,180.0,6.62,-53.5,-32.01,0.0
65,180.0,5.97,-52.91,-30.96,0.0
66,180.0,5.32,-52.32,-29.9,0.0
67,180.0,4.67,-51.72,-28.82,0.0
68,180.0,4.01,-51.11,-27.74,0.0
69,180.0,3.35,-50.5,-26.66,0.0
70,180.0,2.68,-49.89,-25.56,0.0
71,180.0,2.01,-49.27,-24.46,0.0
72,180.0,1.33,-48.65,-23.35,0.0
73,180.0,0.65,-48.03,-22.24,0.0
74,180.0,-0.04,-47.4,-21.12,0.0
75,180.0,-0.72,-46.77,-19.99,0.0
76,180.0,-1.42,-46.13,-18.85,0.0
77,180.0,-2.11,-45.49,-17.71,0.0
78,180.0,-2.81,-44.85,-16.57,0.0
79,180.0,-3.51,-44.2,-15.42,0.0
80,180.0,-4.22,-43.56,-14.26,0.0
81,180.0,-4.93,-42.91,-13.1,0.0
82,180.0,-5.64,-42.25,-11.93,0.0
83,180.0,-6.35,-41.6,-10.76,0.0
84,180.0,-7.07,-40.94,-9.59,0.0
85,180.0,-7.79,-40.28,-8.41,0.0
86,180.0,-8.51,-39.62,-7.23,0.0
87,180.0,-9.23,-38.95,-6.05,0.0
88,180.0,-9.96,-38.29,-4.86,0.0
89,180.0,-10.68,-37.62,-3.67,0.0
90,180.0,-11.41,-36.95,-2.47,0.0
91,180.0,-12.14,-36.28,-1.28,0.0
92,180.0,-12.87,-35.61,-0.08,0.0
93,180.0,-13.61,-34.94,1.12,0.0
94,180.0,-14.34,-34.27,2.32,0.0
95,180.0,-15.07,-33.59,3.52,0.0
96,180.0,-15.81,-32.92,4.73,0.0
97,180.0,-16.54,-32.24,5.93,0.0
98,180.0,-17.28,-31.57,7.14,0.0
99,180.0,-18.02,-30.89,8.35,0.0
100,180.0,-18.75,-30.22,9.55,0.0
101,180.0,-19.49,-29.54,10.76,0.0
102,180.0,-20.23,-28.86,11.97,0.0
103,180.0,-20.96,-28.19,13.17,0.0
104,180.0,-21.7,-27.51,14.38,0.0
105,180.0,-22.43,-26.84,15.58,0.0
106,180.0,-23.17,-26.16,16.78,0.0
107,180.0,-23.9,-25.49,17.99,0.0
108,180.0,-24.63,-24.82,19.19,0.0
109,180.0,-25.36,-24.15,20.38,0.0
110,180.0,-26.09,-23.48,21.58,0.0
111,180.0,-26.82,-22.81,22.77,0.0
112,180.0,-27.55,-22.14,23.96,0.0
113,180.0,-28.27,-21.48,25.15,0.0
114,180.0,-29.0,-20.81,26.34,0.0
115,180.0,-29.72,-20.15,27.52,0.0
116,180.0,-30.44,-19.49,28.69,0.0
117,180.0,-31.15,-18.83,29.87,0.0
118,180.0,-31.87,-18.18,31.04,0.0
119,180.0,-32.58,-17.53,32.2,0.0
120,180.0,-33.29,-16.87,33.36,0.0
121,180.0,-33.99,-16.23,34.52,0.0
122,180.0,-34.69,-15.58,35.67,0.0
123,180.0,-35.39,-14.94,36.82,0.0
124,180.0,-36.09,-14.3,37.96,0.0
125,180.0,-36.78,-13.67,39.09,0.0
126,180.0,-37.47,-13.03,40.22,0.0
127,180.0,-38.16,-12.41,41.34,0.0
128,180.0,-38.84,-11.78,42.46,0.0
129,180.0,-39.51,-11.16,43.57,0.0
130,180.0,-40.19,-10.54,44.67,0.0
131,180.0,-40.85,-9.93,45.76,0.0
132,180.0,-41.52,-9.32,46.85,0.0
133,180.0,-42.18,-8.72,47.93,0.0
134,180.0,-42.83,-8.12,49.0,0.0
135,180.0,-43.48,-7.52,50.06,0.0
136,180.0,-44.12,-6.93,51.12,0.0
137,180.0,-44.76,-6.34,52.16,0.0
138,180.0,-45.39,-5.76,53.2,0.0
139,180.0,-46.02,-5.19,54.23,0.0
140,180.0,-46.64,-4.62,55.25,0.0
141,180.0,-47.26,-4.05,56.26,0.0
142,180.0,-47.87,-3.49,57.25,0.0
143,180.0,-48.47,-2.94,58.24,0.0
144,180.0,-49.07,-2.39,59.22,0.0
145,180.0,-49.66,-1.85,60.19,0.0
146,180.0,-50.24,-1.31,61.15,0.0
147,180.0,-50.82,-0.78,62.09,0.0
148,180.0,-51.39,-0.26,63.03,0.0
149,180.0,-51.95,0.26,63.95,0.0
150,180.0,-52.51,0.77,64.86,0.0
151,180.0,-53.06,1.27,65.76,0.0
152,180.0,-53.6,1.77,66.65,0.0
153,180.0,-54.13,2.26,67.52,0.0
154,180.0,-54.66,2.74,68.38,0.0
155,180.0,-55.18,3.22,69.23,0.0
156,180.0,-55.69,3.69,70.06,0.0
157,180.0,-56.19,4.15,70.89,0.0
158,180.0,-56.68,4.6,71.69,0.0
159,180.0,-57.16,5.04,72.49,0.0
160,180.0,-57.64,5.48,73.27,0.0
161,180.0,-58.11,5.91,74.03,0.0
162,180.0,-58.57,6.33,74.78,0.0
163,180.0,-59.01,6.74,75.52,0.0
164,180.0,-59.45,7.14,76.24,0.0
165,180.0,-59.88,7.54,76.94,0.0
166,180.0,-60.3,7.93,77.63,0.0
167,180.0,-60.72,8.3,78.3,0.0
168,180.0,-61.12,8.67,78.96,0.0
169,180.0,-61.51,9.03,79.6,0.0
170,180.0,-61.89,9.38,80.23,0.0
171,180.0,-62.26,9.72,80.83,0.0
172,180.0,-62.62,10.05,81.42,0.0
173,180.0,-62.97,10.37,81.99,0.0
174,180.0,-63.31,10.68,82.55,0.0
175,180.0,-63.63,10.98,83.09,0.0
176,180.0,-63.95,11.27,83.61,0.0
177,180.0,-64.26,11.55,84.11,0.0
178,180.0,-64.55,11.82,84.59,0.0
179,180.0,-64.83,12.08,85.05,0.0
180,180.0,-65.1,12.33,85.49,0.0
181,180.0,-65.36,12.57,85.92,0.0
182,180.0,-65.61,12.8,86.32,0.0
183,180.0,-65.85,13.01,86.71,0.0
184,180.0,-66.07,13.22,87.08,0.0
185,180.0,-66.28,13.41,87.42,0.0
186,180.0,-66.48,13.59,87.75,0.0
187,180.0,-66.66,13.76,88.05,0.0
188,180.0,-66.84,13.92,88.33,0.0
189,180.0,-66.99,14.07,88.59,0.0
190,180.0,-67.14,14.2,88.83,0.0
191,180.0,-67.27,14.32,89.05,0.0
192,180.0,-67.39,14.43,89.25,0.0
193,180.0,-67.5,14.53,89.42,0.0
194,180.0,-67.59,14.62,89.57,0.0
195,180.0,-67.67,14.69,89.7,0.0
196,180.0,-67.74,14.75,89.81,0.0
197,180.0,-67.79,14.79,89.89,0.0
198,180.0,-67.82,14.83,89.95,0.0
199,180.0,-67.85,14.85,89.99,0.0
200,180.0,-67.85,14.86,90.0,0.0
